X: 34802
T: Road To Spencer, The
R: reel
M: 4/4
K: Bmixolydian
FBBF B2Bc|defd edBA|FAAF AFAB|(3cBA FE F2EA|
FBBF B2Bc|defd edBc|dfed BAFG|1 AB (3cBA B2BA:|2 AB (3cBA B2B2||
f2fg f3g|afeg fdBd|e2e2edef|(3gfe df edBc|
dffg f2fg|afeg fdBc|dfed BAFG|AB(3cBA B2B2|
f2fg f3g|afeg fdBd|e2e2 edef|(3gfe ag fdBc|
dffg f2fg|afbf edBc|dfed BAFG|AB (3cBA B2B2||

